icons/1_Primary/HackNotice.svg

<svg xmlns="http://www.w3.org/2000/svg" viewBox="0 0 1024 1024">
   <circle cx="512" cy="512" r="512" style="fill:#05f91c"/>
   <path data-name="HackNotice logo (vector by krisu)" d="M716.25 267v490H581l-66.6-161.92h43.68l50.59 123.57h68.72V305.89h-57.45v177.32H402.56V346.89L442 443.16h137.89V267h136.36zM346.62 757h97.49V580.84H582l39.42 96.26V540.79H404.06v177.32h-57.44V305.34h68.72l50.59 123.57h43.67L443 267H307.75v490z" style="fill:#fff"/>
</svg>

<svg width="1024" height="1024" viewBox="0 0 1024 1024" fill="none" xmlns="http://www.w3.org/2000/svg">
<g clip-path="url(#clip0_2_2367)">
<path d="M512 1024C794.77 1024 1024 794.77 1024 512C1024 229.23 794.77 0 512 0C229.23 0 0 229.23 0 512C0 794.77 229.23 1024 512 1024Z" fill="#98DC9A"/>
<path d="M716.25 267V757H581L514.4 595.08H558.08L608.67 718.65H677.39V305.89H619.94V483.21H402.56V346.89L442 443.16H579.89V267H716.25ZM346.62 757H444.11V580.84H582L621.42 677.1V540.79H404.06V718.11H346.62V305.34H415.34L465.93 428.91H509.6L443 267H307.75V757H346.62Z" fill="white"/>
</g>
<defs>
<clipPath id="clip0_2_2367">
<rect width="1024" height="1024" fill="white"/>
</clipPath>
</defs>
</svg>
